X:1
T:Presto
T:From Sonata in A Minor
T:Georg Benda
%%score { 1 | 2 }
L:1/8
M:6/8
K:C
V:1 treble nm="Piano" snm="Pno."
V:2 bass 
V:1
 !3!efe !1!c!2!B!1!A | !3!efe dc!2!A | !3!cBA !5!f3- | f3 e3- | ed^c d3- | d3 !1!cde | %6
 fed !1!c!2!BA | !2!!3!!5![^GBe]2 z z z2 | !3!EFE !1!C!2!B,!1!A, | !3!EFE DC!2!B, | !3!CB,A, F3- | %11
 F3 E3- | E!1!D!3!^C !4!D3- | D3 CB,A, | B,6 | A,2 z |] !1!c3- x3 | c3 (dc)d | c2 z !2!e3- | %19
 e3 (fe)f | e2 z!mf! (!4!g3 | f)ed (!5!e'!2!a)!1!g | !3!fed (!4!f3 | e)dc (!5!d'!2!g)!1!f | %24
 !3!edc (!4!_b3 | a)gf (!4!c'3 | b)ag (!4!d'3 | c')ba c'ba | !4!^gfe d!3!cB | ced cBA | %30
 !4!^GFE D!3!CB, | CED CB,A, |!f! z3!p! (E3 |!f! F3) E3 | z3 (E3 |!f! F3) E3 |] %36
V:2
!f! [A,C]2 z z3 | [^G,B,]2 z z3 | A,,2 z !1!A,!3!G,!4!F, | !1!B,!3!A,!4!G, !1!C!3!DE | %4
 F2 z !3!F,E,D, | ^G,^F,E, A,!3!B,C | D2 z ^D2 z | !3!E,!2!F,!1!E, D,C,B,, | [A,,C,]2 z z3 | %9
 [^G,,B,,]2 z z3 | A,,,2 z !1!A,,!3!G,,!4!F,, | !1!B,,!3!A,,!4!G,, !1!C,!3!D,E, | %12
 F,2 z !3!F,,E,,D,, | !2!^G,,^F,,E,, A,,2 z | E,2 z E,,2 z | A,,2 z |] z3 x3[K:treble] | %17
[K:treble] [EG]2 z[K:treble] [FG]2 z | [EG]2 z z z2 | !4!!1![CG]2 z [B,G]2 z | CEG !5!^CEA | %21
 DFA !5!^CEA | DFA !5!B,DG | CEG B,DG | CEG EGc | FAc !4!^FAd | !5!GBd !4!^GBe | %27
 A2 z2 !5!!1![F^d] z | E2 z z3 | z6 |[K:bass] z !2!F,!1!E, D,C,B,, | C,E,D, !1!C,!2!B,,!3!A,, | %32
 [E,,E,]2 z z3 |!p! (!5![D,^G,B,]6 | [C,A,]6) |!p! !4![E,^G,B,]6 |] %36

